Sources/FrostedUI/Resources/Icons.xcassets/waveform24.imageset/waveform-24.svg

<svg width="24" height="24" viewBox="0 0 24 24" fill="none" xmlns="http://www.w3.org/2000/svg" data-fui-icon="true">
  <path
    d="M7.5 4.5C7.91421 4.5 8.25 4.83579 8.25 5.25V18.25C8.25 18.6642 7.91421 19 7.5 19C7.08579 19 6.75 18.6642 6.75 18.25V5.25C6.75 4.83579 7.08579 4.5 7.5 4.5ZM13.5 6.5C13.9142 6.5 14.25 6.83579 14.25 7.25V16.25C14.25 16.6642 13.9142 17 13.5 17C13.0858 17 12.75 16.6642 12.75 16.25V7.25C12.75 6.83579 13.0858 6.5 13.5 6.5ZM4.5 7.5C4.91421 7.5 5.25 7.83579 5.25 8.25V15.25C5.25 15.6642 4.91421 16 4.5 16C4.08579 16 3.75 15.6642 3.75 15.25V8.25C3.75 7.83579 4.08579 7.5 4.5 7.5ZM10.5 8.5C10.9142 8.5 11.25 8.83579 11.25 9.25V14.25C11.25 14.6642 10.9142 15 10.5 15C10.0858 15 9.75 14.6642 9.75 14.25V9.25C9.75 8.83579 10.0858 8.5 10.5 8.5ZM16.5 9C16.9142 9 17.25 9.33579 17.25 9.75V13.75C17.25 14.1642 16.9142 14.5 16.5 14.5C16.0858 14.5 15.75 14.1642 15.75 13.75V9.75C15.75 9.33579 16.0858 9 16.5 9ZM19.5 10.5C19.9142 10.5 20.25 10.8358 20.25 11.25V12.25C20.25 12.6642 19.9142 13 19.5 13C19.0858 13 18.75 12.6642 18.75 12.25V11.25C18.75 10.8358 19.0858 10.5 19.5 10.5Z"
    fill="currentColor"
  />
</svg>

<svg xmlns="http://www.w3.org/2000/svg" width="24" height="24" fill="none" data-fui-icon="true" viewBox="0 0 24 24"><path fill="currentColor" d="M7.5 4.5a.75.75 0 0 1 .75.75v13a.75.75 0 0 1-1.5 0v-13a.75.75 0 0 1 .75-.75m6 2a.75.75 0 0 1 .75.75v9a.75.75 0 0 1-1.5 0v-9a.75.75 0 0 1 .75-.75m-9 1a.75.75 0 0 1 .75.75v7a.75.75 0 0 1-1.5 0v-7a.75.75 0 0 1 .75-.75m6 1a.75.75 0 0 1 .75.75v5a.75.75 0 0 1-1.5 0v-5a.75.75 0 0 1 .75-.75m6 .5a.75.75 0 0 1 .75.75v4a.75.75 0 0 1-1.5 0v-4A.75.75 0 0 1 16.5 9m3 1.5a.75.75 0 0 1 .75.75v1a.75.75 0 0 1-1.5 0v-1a.75.75 0 0 1 .75-.75"/></svg>
